assets/resources/icons/services/Lobby.svg

<svg width="50" height="50" viewBox="0 0 50 50" fill="none" xmlns="http://www.w3.org/2000/svg">
<path d="M24.4 17.3496L23.9 16.9996L24.35 16.5496C25.5 15.4496 26.1 13.9996 26.1 12.4496C26.1 9.29959 23.5 6.69958 20.35 6.69958C17.2 6.69958 14.6 9.29959 14.6 12.4496C14.6 13.9996 15.2 15.4496 16.35 16.5496L16.8 16.9996L16.3 17.3496C14.4 18.6496 13.25 20.6996 13.05 22.9496H15.2C15.45 20.2996 17.65 18.2496 20.35 18.2496C23.05 18.2496 25.25 20.2996 25.5 22.9496H27.65C27.45 20.6996 26.25 18.6496 24.4 17.3496ZM20.3 16.0996C18.25 16.0996 16.7 14.4996 16.7 12.4996C16.7 10.4996 18.3 8.89959 20.3 8.89959C22.35 8.89959 23.95 10.4996 23.95 12.4996C23.95 14.4996 22.35 16.0996 20.3 16.0996ZM35.95 19.2496C33.8 19.2496 32.05 20.8496 31.8 22.9496H33.95C34.2 22.0496 35 21.3996 35.95 21.3996C36.9 21.3996 37.7 22.0496 37.95 22.9496H40.1C39.85 20.8496 38.1 19.2496 35.95 19.2496ZM6.75 25.4996V27.5996H8.3V43.1996H41.7V27.5996H43.25V25.4996H6.75ZM39.55 41.0996H10.45V27.5996H39.55V41.0996Z" fill="#876671"/>
</svg>

<?xml version="1.0" encoding="utf-8"?>
<!-- Generator: Adobe Illustrator 25.0.0, SVG Export Plug-In . SVG Version: 6.00 Build 0)  -->
<svg version="1.1" id="Capa_1" xmlns="http://www.w3.org/2000/svg" xmlns:xlink="http://www.w3.org/1999/xlink" x="0px" y="0px"
	 viewBox="0 0 50 50" style="enable-background:new 0 0 50 50;" xml:space="preserve">
<style type="text/css">
	.st0{fill:#A52016;}
</style>
<path class="st0" d="M24.4,17.3L23.9,17l0.5-0.4c1.1-1.1,1.8-2.6,1.8-4.1c0-3.2-2.6-5.8-5.8-5.8s-5.8,2.6-5.8,5.8
	c0,1.6,0.6,3,1.8,4.1l0.4,0.4l-0.5,0.4c-1.9,1.3-3,3.4-3.2,5.6h2.1c0.2-2.6,2.4-4.7,5.2-4.7s4.9,2.1,5.1,4.7h2.1
	C27.5,20.7,26.2,18.6,24.4,17.3z M20.3,16.1c-2,0-3.6-1.6-3.6-3.6s1.6-3.6,3.6-3.6c2.1,0,3.7,1.6,3.7,3.6S22.4,16.1,20.3,16.1z
	 M36,19.2c-2.2,0-3.9,1.6-4.2,3.7H34c0.2-0.9,1-1.6,2-1.6s1.8,0.7,2,1.6h2.1C39.8,20.8,38.1,19.2,36,19.2z M6.8,25.5v2.1h1.6v15.6
	h33.4V27.6h1.5v-2.1H6.8z M39.5,41.1H10.4V27.6h29.1V41.1z"/>
</svg>
